lib/svgs/team-loudspeaker.svg

<?xml version="1.0" encoding="UTF-8" standalone="no"?>
<svg width="20px" height="20px" viewBox="0 0 20 20" version="1.1" xmlns="http://www.w3.org/2000/svg" xmlns:xlink="http://www.w3.org/1999/xlink">
    <defs></defs>
    <g id="Icons" stroke="none" stroke-width="1" fill="none" fill-rule="evenodd">
        <g id="Web" transform="translate(-337.000000, -2442.000000)" fill="#000000">
            <g id="team/team-loudspeaker" transform="translate(337.000000, 2442.000000)">
                <path d="M14.875,3 C13,3 11.25,3.9375 10.1875,5.5 L8,5.5 L7.375,5.5 L4.875,5.5 C3.8125,5.5 3,6.8125 3,8.625 C3,10.4375 3.8125,11.75 4.875,11.75 L6.3125,11.75 L9,16.3125 C9.375,16.9375 10.125,17.125 10.6875,16.75 C11.3125,16.375 11.5,15.625 11.125,15.0625 L9.1875,11.75 L10.1875,11.75 C11.25,13.3125 13,14.25 14.875,14.25 C16.6875,14.25 18,11.8125 18,8.625 C18,5.4375 16.6875,3 14.875,3 M14.875,13 C14.3125,13 13.6875,12.1875 13.3125,10.9375 C14.25,10.5625 14.875,9.6875 14.875,8.625 C14.875,7.5625 14.25,6.6875 13.3125,6.3125 C13.6875,5.0625 14.3125,4.25 14.875,4.25 C15.75,4.25 16.75,6.125 16.75,8.625 C16.75,11.125 15.75,13 14.875,13" id="Shape"></path>
            </g>
        </g>
    </g>
</svg>

<svg xmlns="http://www.w3.org/2000/svg" viewBox="0 0 20 20">
    <path fill="#000" fill-rule="evenodd" d="M14.875 3a5.672 5.672 0 0 0-4.688 2.5H4.876C3.812 5.5 3 6.813 3 8.625c0 1.813.813 3.125 1.875 3.125h1.438L9 16.313c.375.625 1.125.812 1.688.437.624-.375.812-1.125.437-1.688L9.187 11.75h1a5.672 5.672 0 0 0 4.688 2.5c1.813 0 3.125-2.438 3.125-5.625C18 5.437 16.687 3 14.875 3m0 10c-.563 0-1.188-.813-1.563-2.063a2.453 2.453 0 0 0 1.563-2.312 2.453 2.453 0 0 0-1.563-2.313c.376-1.25 1-2.062 1.563-2.062.875 0 1.875 1.875 1.875 4.375S15.75 13 14.875 13"/>
</svg>
